!!!!SEGMENT: pl-wtm--r-1542--003_stefani-jozef-msza-in-es-no-3-graduale.krn
!!!id: 18xx:1779
!!!COM: Stefani, Józef
!!!OTL: Msza in Es No 3 – Graduale
!!!PDT:
!!!SMS-siglum: PL-Wtm
!!!SMS-shelfmark: R 1542
!!!NIFC-rismID: 1001120488
!!!URL-scan: http://repozytorium.nifc.pl/skany/pl-wtm-nut--r1542
!!!ONB-nifc: UWAGA: części Mszy: 1. Kyrie, 2. Gloria, 3. Graduale, 4. Credo, 5. Offertorium, 6. Sanctus, 7. Benedictus, 8. Agnus Dei
!!!SMS-variant:
!!!SMS-altvar:
**kern	**dynam	**kern	**text	**text	**dynam	**kern	**text	**kern	**text	**text	**kern	**text	**text	**dynam	**kern	**dynam	**kern	**dynam	**kern	**dynam	**kern	**dynam	**kern	**kern	**dynam	**kern	**kern	**dynam	**kern	**dynam	**kern	**dynam	**kern	**dynam	**kern	**dynam	**kern	**dynam
*part18	*part18	*part17	*part17	*part17	*part17	*part16	*part16	*part15	*part15	*part15	*part14	*part14	*part14	*part14	*part13	*part13	*part12	*part12	*part11	*part11	*part10	*part10	*part9	*part8	*part8	*part7	*part6	*part6	*part5	*part5	*part4	*part4	*part3	*part3	*part2	*part2	*part1	*part1
*staff18	*	*staff17	*staff17	*staff17	*	*staff16	*staff16	*staff15	*staff15	*staff15	*staff14	*staff14	*staff14	*	*staff13	*	*staff12	*	*staff11	*	*staff10	*	*staff9	*staff8	*	*staff7	*staff6	*	*staff5	*	*staff4	*	*staff3	*	*staff2	*	*staff1	*
*I"V: celli et C: Basſi	*	*I"Basſo.	*	*	*	*I"Tenore	*	*I"Alto	*	*	*I"Soprano	*	*	*	*I"Viole	*	*I"Violini	*	*I"Violini	*	*I"Trombone	*	*I"Tromboni	*I"Tromboni	*	*I"Tympani F. B.	*I"Trombe in B.	*	*I"Fagotti	*	*I"Corni in Es.	*	*I"Clarinetti in B.	*	*I"Oboe	*	*I"Flautti	*
*I'cb	*	*I'B	*	*	*	*I'T	*	*I'A	*	*	*I'S	*	*	*	*I'vla	*	*I'vl 2	*	*I'vl 1	*	*I'trb 3	*	*I'trb 2	*I'trb 1	*	*I'timp	*I'tr in B	*	*I'fag	*	*I'cor in Es	*	*I'cl in B	*	*I'ob	*	*I'fl	*
*clefF4	*	*clefF4	*	*	*	*clefC4	*	*clefG2	*	*	*clefG2	*	*	*	*clefC3	*	*clefG2	*	*clefG2	*	*clefF4	*	*clefC4	*clefC3	*	*clefF4	*clefG2	*	*clefF4	*	*clefG2	*	*clefG2	*	*clefG2	*	*clefG2	*
*ITrd0c0	*	*	*	*	*	*	*	*	*	*	*	*	*	*	*	*	*	*	*	*	*	*	*	*	*	*	*ITrd1c2	*	*	*	*ITrd5c9	*	*ITrd1c2	*	*	*	*	*
*k[b-e-a-]	*	*k[b-e-a-]	*	*	*	*k[b-e-a-]	*	*k[b-e-a-]	*	*	*k[b-e-a-]	*	*	*	*k[b-e-a-]	*	*k[b-e-a-]	*	*k[b-e-a-]	*	*k[b-e-a-]	*	*k[b-e-a-]	*k[b-e-a-]	*	*k[]	*k[b-e-]	*	*k[b-e-a-]	*	*k[b-e-a-]	*	*k[b-e-a-]	*	*k[b-e-a-]	*	*k[b-e-a-]	*
*M3/4	*	*M3/4	*	*	*	*M3/4	*	*M3/4	*	*	*M3/4	*	*	*	*M3/4	*	*M3/4	*	*M3/4	*	*M3/4	*	*M3/4	*M3/4	*	*M3/4	*M3/4	*	*M3/4	*	*M3/4	*	*M3/4	*	*M3/4	*	*M3/4	*
*>[A,A]	*	*	*	*	*	*	*	*	*	*	*	*	*	*	*	*	*	*	*	*	*	*	*	*	*	*	*	*	*	*	*	*	*	*	*	*	*	*
*>A	*	*	*	*	*	*	*	*	*	*	*	*	*	*	*	*	*	*	*	*	*	*	*	*	*	*	*	*	*	*	*	*	*	*	*	*	*	*
*	*	*	*	*	*	*	*	*	*	*	*	*	*	*	*	*	*	*	*	*	*	*	*	*	*	*	*^	*	*	*	*^	*	*^	*	*	*	*	*
!	!	!	!	!	!	!LO:TX:t=P:problem:zanotowane nachodzące na siebie klucze na 3 i 4 linii - znaki przykluczowe jak do klucza altowego	!	!	!	!	!	!	!	!	!	!	!	!	!	!	!	!	!	!	!	!	!	!	!	!	!	!	!	!	!	!	!	!	!	!LO:TX:a:t=|:problem	!
!	!LO:DY:rj	!	!	!	!	!	!	!	!	!	!	!	!	!LO:DY:a	!	!	!	!	!	!	!	!	!	!	!	!	!	!	!	!	!	!	!	!	!	!	!	!	!	!LO:TX:rj:a:B:t=Andante	!
4B-\	f	4B-\	.	.	.	4B-\	.	4b-\	2.) O	.	4b-\	1.) Po-	.	f	4B-/	.	4b-/	.	4b-\	f	4B-\	.	4B-\	4B-/	.	4r	4b-/	4b-\	.	4B-\	.	4B-/	4B-\	.	4b-/	4b-\	.	4bb-\ 4b-\	.	4bb-\	f
*	*	*	*	*	*	*	*	*	*	*	*	*	*	*	*	*	*	*	*	*	*	*	*	*	*	*	*v	*v	*	*	*	*	*	*	*	*	*	*	*	*	*
=1	=1	=1	=1	=1	=1	=1	=1	=1	=1	=1	=1	=1	=1	=1	=1	=1	=1	=1	=1	=1	=1	=1	=1	=1	=1	=1	=1	=1	=1	=1	=1	=1	=1	=1	=1	=1	=1	=1	=1	=1
*	*	*	*	*	*	*	*	*	*	*	*	*	*	*	*	*	*	*	*	*	*	*	*	*	*	*	*	*	*	*	*	*	*	*	*	*	*^	*	*	*
*2\right	*	*2\right	*	*	*	*2\right	*	*	*	*	*2\right	*	*	*	*2\right	*	*	*	*2\right	*	*2\right	*	*	*2\right	*	*	*2\right	*	*2\right	*	*	*	*	*	*	*	*	*2\right	*	*2\right	*
!	!	!	!	!	!	!	!	!	!	!	!	!	!	!	!	!	!	!	!	!	!	!	!	!	!	!	!	!	!	!	!	!	!	!	!	!	!	!	!	!LO:TX:t=P:problem:2\right:global	!
!	!	!	!	!	!	!	!	!	!	!	!	!	!	!	!	!	!	!	!	!	!	!	!	!	!	!	!	!	!	!	!	!	!	!	!	!	!	!	!	!LO:TX:a:t=|:problem	!
2E-\	.	2E-\	.	.	.	2e-\	.	2g/	Ty	.	2ee-\	-wstań-	.	.	2e-\	.	2g/	.	2ee-\	.	2E-\	.	2G/	2e-\	.	2.r	2ee-\	.	2E-\	.	2e-/ 2G/	2ryy	.	2ee-/ 2g/	2ryy	.	2gg/	2ee-\	.	2eee-\	.
!	!	!	!	!	!	!	!	!	!	!	!	!	!	!	!	!	!	!	!	!	!	!	!	!	!	!	!	!	!	!	!	!	!	!	!	!	!	!	!	!LO:TX:a:t=|:problem	!
4B-\	.	4B-\	.	.	.	4B-\	.	4b-\	któ-	.	4b-\	-cie	.	.	4B-/	.	4b-/	.	4b-\	.	4B-\	.	4B-\	4b-\	.	.	4b-\	.	4B-\	.	4B-/	4B-\	.	4b-/	4b-\	.	4bb-\	4ryy	.	4bb-\	.
*	*	*	*	*	*	*	*	*	*	*	*	*	*	*	*	*	*	*	*	*	*	*	*	*	*	*	*	*	*	*	*	*	*	*	*	*	*v	*v	*	*	*
=2	=2	=2	=2	=2	=2	=2	=2	=2	=2	=2	=2	=2	=2	=2	=2	=2	=2	=2	=2	=2	=2	=2	=2	=2	=2	=2	=2	=2	=2	=2	=2	=2	=2	=2	=2	=2	=2	=2	=2	=2
!	!	!	!	!	!	!	!	!	!	!	!	!	!	!	!	!	!	!	!	!	!	!	!	!	!	!	!	!	!	!	!	!	!	!	!	!	!	!	!LO:TX:a:t=|:problem	!
2G\	.	2G\	.	.	.	2G/	.	2g/	-re-	.	2g/	lu-	.	.	2G/	.	2g/	.	2g/	.	2G\	.	2G/	2g\	.	2.r	2g/	.	2G\	.	2G/	2G\	.	2g/	2g\	.	2gg\	.	2gg\	.
!	!	!	!	!	!	!	!	!	!	!	!	!	!	!	!	!	!	!	!	!	!	!	!	!	!	!	!	!	!	!	!	!	!	!	!	!	!	!	!LO:TX:a:t=|:problem	!
4E-\	.	4E-\	.	.	.	4E-/	.	4e-/	-go	.	4e-/	-dy	.	.	4E-/	.	4e-/	.	4e-/	.	4E-\	.	4E-/	4e-\	.	.	4e-/	.	4E-\	.	4E-/	4E-\	.	4e-/	4e-\	.	4ee-\	.	4ee-\	.
*	*	*	*	*	*	*	*	*	*	*	*	*	*	*	*	*	*	*	*	*	*	*	*	*	*	*	*	*	*	*	*v	*v	*	*v	*v	*	*	*	*	*
=3	=3	=3	=3	=3	=3	=3	=3	=3	=3	=3	=3	=3	=3	=3	=3	=3	=3	=3	=3	=3	=3	=3	=3	=3	=3	=3	=3	=3	=3	=3	=3	=3	=3	=3	=3	=3	=3	=3
!	!LO:DY:rj	!	!	!	!	!	!	!	!	!	!	!	!	!	!	!	!	!	!	!	!	!	!	!	!	!	!	!	!	!	!	!LO:DY:rj	!	!	!	!	!	!
4BB-/	p	8BB-/	.	.	.	8B-\	.	8d/	dzie-	.	8f/	na	.	p	4B-/	.	(8d/L	p	(8f/L	p	2.r	.	2.r	2.r	.	2.r	2.r	.	2.r	.	2.B-/ 2.BB-/	p	2.r	.	(8ff\L 8dd\	p	2.r	.
.	.	8BB-/	.	.	.	8B-\	.	8e-/	-ła	.	8g/	głos	.	.	.	.	8e-/J	.	8g/J	.	.	.	.	.	.	.	.	.	.	.	.	.	.	.	8gg\J 8ee-\	.	.	.
2BB-/	.	4BB-/	.	.	.	4B-\	.	4f/	nie-	.	4a-/	nie-	.	.	[2B-/	.	4f/	.	4a-/	.	.	.	.	.	.	.	.	.	.	.	.	.	.	.	4aa-\ 4ff\	.	.	.
.	.	4BB-/	.	.	.	4B-\	.	4d/	-po-	.	4b-/	-bios	.	.	.	.	4g/)	.	4b-/)	.	.	.	.	.	.	.	.	.	.	.	.	.	.	.	4bb-\ 4dd\)	.	.	.
=4	=4	=4	=4	=4	=4	=4	=4	=4	=4	=4	=4	=4	=4	=4	=4	=4	=4	=4	=4	=4	=4	=4	=4	=4	=4	=4	=4	=4	=4	=4	=4	=4	=4	=4	=4	=4	=4	=4
*	*	*	*	*	*	*	*	*	*	*	*	*	*	*	*	*	*	*	*	*	*	*	*	*	*	*	*	*	*	*	*^	*	*^	*	*^	*	*	*
4.E-\	.	4E-\	.	.	.	4B-\	.	4f/	-ię-	.	4a-/	Pa-	.	.	4.B-/]	.	(4f/	.	(4a-/	.	2.r	.	2.r	2.r	.	2.r	2.r	.	4r	.	4.B-/ 4.E-/	2ryy	.	4r	2ryy\	.	(4aa-\ 4ff\	2ryy	.	2.r	.
.	.	8E-\	.	.	.	8B-\	.	8e-/	-te	.	8g/	-na	.	.	.	.	8e-/)	.	8g/)	.	.	.	.	.	.	.	.	.	4r	.	.	.	.	4r	.	.	8gg\ 8ee-\)	.	.	.	.
8r	.	8r	.	.	.	8r	.	8r	.	.	8r	.	.	.	8r	.	8r	.	8r	.	.	.	.	.	.	.	.	.	.	.	8r	.	.	.	.	.	8r	.	.	.	.
4E-\	.	4E-\	.	.	.	4B-\	.	4e-/	U-	.	4g/	niech	.	.	4B-/	.	[4e-/	.	4g/	.	.	.	.	.	.	.	.	.	4E-\	.	4g/	4e-\	.	(4g/	[4e-\	.	(4gg/	4ee-\	.	.	.
*	*	*	*	*	*	*	*	*	*	*	*	*	*	*	*	*	*	*	*	*	*	*	*	*	*	*	*	*	*	*	*v	*v	*	*	*	*	*	*	*	*	*
=5	=5	=5	=5	=5	=5	=5	=5	=5	=5	=5	=5	=5	=5	=5	=5	=5	=5	=5	=5	=5	=5	=5	=5	=5	=5	=5	=5	=5	=5	=5	=5	=5	=5	=5	=5	=5	=5	=5	=5	=5
2BB-/	.	2BB-/	.	.	.	2B-\	.	(4e-/	-wiel-	.	2f/	zie-	.	.	2.B-/	.	(4e-/]	.	2f/	.	2.r	.	2.r	2.r	.	2.r	2.r	.	2BB-/	.	2.f/ 2.B-/	.	2f/	4e-\]	.	2ff/	4ee-\	.	2.r	.
.	.	.	.	.	.	.	.	8d/L	.	.	.	.	.	.	.	.	8d/L	.	.	.	.	.	.	.	.	.	.	.	.	.	.	.	.	8d\L	.	.	8dd\L	.	.	.
.	.	.	.	.	.	.	.	8c/J)	.	.	.	.	.	.	.	.	8c/J	.	.	.	.	.	.	.	.	.	.	.	.	.	.	.	.	8c\J	.	.	8cc\J	.	.	.
4BB-/	.	4BB-/	.	.	.	4F/	.	4d/	-bia	.	4b-/	-mia	.	.	.	.	4d/)	.	4b-/	.	.	.	.	.	.	.	.	.	4B-\	.	.	.	4b-/	4d\	.	4bb-/)	4dd\	.	.	.
!!LO:LB:g=original
=6	=6	=6	=6	=6	=6	=6	=6	=6	=6	=6	=6	=6	=6	=6	=6	=6	=6	=6	=6	=6	=6	=6	=6	=6	=6	=6	=6	=6	=6	=6	=6	=6	=6	=6	=6	=6	=6	=6	=6	=6
*^	*	*	*	*	*	*	*	*	*	*	*	*	*	*	*	*	*	*	*	*	*	*	*	*	*	*	*	*	*	*	*^	*	*	*	*	*	*	*	*	*
*	*	*	*	*	*	*	*	*	*	*	*	*	*	*	*	*	*	*	*	*	*	*	*	*	*	*	*	*	*	*	*	*	*2\right	*	*	*2\right	*	*	*	*	*	*
(2C/	2ryy	.	2C/	.	.	.	2F/	.	2e-/	wszel-	.	(4b-/	ca-	.	.	[2c\	.	2e-/	.	(4b-/	.	2.ryy	.	2.ryy	2.ryy	.	2.ryy	2.ryy	.	[>2c\ [>2C\	.	2f/	2f\	.	4b-/	2e-\	.	4bb-/	2ee-\	.	4r	.
.	.	.	.	.	.	.	.	.	.	.	.	8an/L	.	.	.	.	.	.	.	8an/L	.	.	.	.	.	.	.	.	.	.	.	.	.	.	8a/L	.	.	8aan/L	.	.	4r	.
.	.	.	.	.	.	.	.	.	.	.	.	8g/J)	.	.	.	.	.	.	.	8g/J	.	.	.	.	.	.	.	.	.	.	.	.	.	.	8g/J	.	.	8gg/J	.	.	.	.
8C/)	8ryy	.	8C/	.	.	.	8F/	.	8e-/	-kie	.	8a/	-ła	.	.	8c\]	.	8e-/	.	8a/)	.	.	.	.	.	.	.	.	.	8c\] 8C\]	.	8f/	8f\	.	8a/)	8e-\	.	8aa/	8ee-\	.	8r	.
!	!	!	!	!	!	!	!	!	!	!	!	!	!	!	!	!	!	!	!	!	!	!	!	!	!	!	!	!	!	!	!	!	!	!	!	!	!	!LO:TX:a:t=|:problem	!	!	!LO:SIC:s:v=8aan	!
!	!	!	!	!	!	!	!	!	!	!	!	!	!	!	!	!	!	!	!	!LO:TX:b:t=|:problem	!	!	!	!	!	!	!	!	!	!	!	!	!	!	!	!	!	!LO:TX:b:t=|:problem	!	!	!LO:TX:a:t=|:problem	!
8c/	8r	.	8r	.	.	.	8c\	.	8e-/	ży-	.	8a/	mil-	.	.	8c\	.	8e-/	.	8a/	.	.	.	.	.	.	.	.	.	8r	.	8r	8ryy	.	8cc/	8cc\	.	8aa/	8ee-\	.	8aa-\	.
*	*	*	*	*	*	*	*	*	*	*	*	*	*	*	*	*	*	*	*	*	*	*	*	*	*	*	*	*	*	*	*	*v	*v	*	*	*	*	*	*	*	*	*
=7	=7	=7	=7	=7	=7	=7	=7	=7	=7	=7	=7	=7	=7	=7	=7	=7	=7	=7	=7	=7	=7	=7	=7	=7	=7	=7	=7	=7	=7	=7	=7	=7	=7	=7	=7	=7	=7	=7	=7	=7	=7
8.d\L	4r	.	4r	.	.	.	(8.d\L	.	4f/	-ią-	.	(8.b-\L	-cze-	.	.	(8.d\L	.	(4f/	.	((8.b-/L	.	2.ryy	.	2.ryy	2.ryy	.	2.ryy	2.ryy	.	4r	.	4r	.	8.dd/L	8.dd\L	.	(8.bb-/L	4ff\	.	(8.bb-\L	.
32e-\LL	.	.	.	.	.	.	32e-\LL	.	.	.	.	32cc\LL	.	.	.	32e-\LL	.	.	.	32cc/LL	.	.	.	.	.	.	.	.	.	.	.	.	.	32ee-/LL	32ee-\LL	.	32ccc/LL	.	.	32ccc\LL	.
32d\JJJ	.	.	.	.	.	.	32d\JJJ	.	.	.	.	32b-\JJJ)	.	.	.	32d\JJJ	.	.	.	32b-/JJJ	.	.	.	.	.	.	.	.	.	.	.	.	.	32dd/JJJ	32dd\JJJ	.	32bb-/JJJ	.	.	32bb-\JJJ	.
4c\	4r	.	4r	.	.	.	4c\)	.	4e-/	-ce	.	4an\	-nie	.	.	4c\	.	4e-/	.	4an/)	.	.	.	.	.	.	.	.	.	4r	.	4r	.	4cc/	4cc\	.	4aan/	4ee-\	.	4aan\	.
4B-/	4BB-\	.	4BB-/	.	.	.	4B-\	.	4d/	stwo-	.	4b-\	za-	.	.	4B-\)	.	4d/)	.	4b-/)	.	.	.	.	.	.	.	.	.	4B-\ 4BB-\	.	4f/ 4B-/	.	4b-\	4b-/	.	4bb-/)	4dd\	.	4bb-\)	.
=8	=8	=8	=8	=8	=8	=8	=8	=8	=8	=8	=8	=8	=8	=8	=8	=8	=8	=8	=8	=8	=8	=8	=8	=8	=8	=8	=8	=8	=8	=8	=8	=8	=8	=8	=8	=8	=8	=8	=8	=8	=8
*	*	*	*	*	*	*	*	*	*	*	*	*	*	*	*	*	*	*	*	*	*	*	*	*	*	*	*	*	*	*^	*	*^	*	*	*	*	*	*	*	*	*
(4d/	4F\	.	4F\	.	.	.	4B-\	.	4f/	-rze-	.	4dd\	-cho-	.	.	(4B-/	.	2f/	.	(4dd\	.	2.ryy	.	2.ryy	2.ryy	.	2.ryy	2.ryy	.	(4B-/	4F\	.	2f/	2f\	.	4dd/	4b-\	.	(4bb-/	2ff\	.	(4ddd\	.
4c/)	4FF/	.	4F\	.	.	.	4An\	.	4f/	-nie	.	4cc\	-wa.	.	.	4An/)	.	.	.	4cc\)	.	.	.	.	.	.	.	.	.	4An/)	4FF/	.	.	.	.	4cc/	4a\	.	4aan/)	.	.	4ccc\)	.
4r	4ryy	.	4r	.	.	.	4r	.	4r	.	.	4r	.	.	.	4r	.	4r	.	4r	.	.	.	.	.	.	.	.	.	4r	4r	.	4r	4ryy	.	4r	4ryy	.	4r	4r	.	4r	.
*	*	*	*	*	*	*	*	*	*	*	*	*	*	*	*	*	*	*	*	*	*	*	*	*	*	*	*	*	*	*v	*v	*	*	*	*	*v	*v	*	*v	*v	*	*	*
*	*	*	*	*	*	*	*	*	*	*	*	*	*	*	*	*	*	*	*	*	*	*	*	*	*	*	*	*	*	*	*	*v	*v	*	*	*	*	*	*	*
=9	=9	=9	=9	=9	=9	=9	=9	=9	=9	=9	=9	=9	=9	=9	=9	=9	=9	=9	=9	=9	=9	=9	=9	=9	=9	=9	=9	=9	=9	=9	=9	=9	=9	=9	=9	=9	=9	=9	=9
4F/	2.r	.	4F\	O	O-	.	2.r	.	2.r	.	.	2.r	.	.	.	(4F/	.	2.r	.	2.r	.	2.ryy	.	2.ryy	2.ryy	.	2.ryy	2.ryy	.	2.ryy	.	2.ryy	.	2.ryy	.	2.ryy	.	2.ryy	.
4G/	.	.	4G\	to	-czyść	.	.	.	.	.	.	.	.	.	.	4G/	.	.	.	.	.	.	.	.	.	.	.	.	.	.	.	.	.	.	.	.	.	.	.
4An/	.	.	4An\	Bóg	me	.	.	.	.	.	.	.	.	.	.	4An/)	.	.	.	.	.	.	.	.	.	.	.	.	.	.	.	.	.	.	.	.	.	.	.
=10	=10	=10	=10	=10	=10	=10	=10	=10	=10	=10	=10	=10	=10	=10	=10	=10	=10	=10	=10	=10	=10	=10	=10	=10	=10	=10	=10	=10	=10	=10	=10	=10	=10	=10	=10	=10	=10	=10	=10
4B-/	2.r	.	(4B-\	ży-	ser-	.	2.r	.	4d/	O	O-	2.r	.	.	.	(4B-/	.	(4d/	.	2.r	.	2.ryy	.	2.ryy	2.ryy	.	2.ryy	2.ryy	.	2.ryy	.	2.ryy	.	2.ryy	.	2.ryy	.	2.ryy	.
4G/	.	.	4G\)	.	.	.	.	.	4e-/	to	-czyść	.	.	.	.	4G/	.	4e-/	.	.	.	.	.	.	.	.	.	.	.	.	.	.	.	.	.	.	.	.	.
4D/	.	.	4D\	-wy	-ce	.	.	.	4f/	Bóg	me	.	.	.	.	4B-/)	.	4f/)	.	.	.	.	.	.	.	.	.	.	.	.	.	.	.	.	.	.	.	.	.
=11	=11	=11	=11	=11	=11	=11	=11	=11	=11	=11	=11	=11	=11	=11	=11	=11	=11	=11	=11	=11	=11	=11	=11	=11	=11	=11	=11	=11	=11	=11	=11	=11	=11	=11	=11	=11	=11	=11	=11
4E-/	2.r	.	4E-\	O	o-	.	2.r	.	4e-/	ży-	ser-	4g/	O	o-	.	(4B-/	.	(2e-/	.	(4g/	.	2.ryy	.	2.ryy	2.ryy	.	2.ryy	2.ryy	.	2.ryy	.	2.ryy	.	2.ryy	.	2.ryy	.	2.ryy	.
4C/	.	.	4C/	to,,	-czyść	.	.	.	4e-/	-wy	-ce	4an/	to	-czyść	.	4c/	.	.	.	4an/	.	.	.	.	.	.	.	.	.	.	.	.	.	.	.	.	.	.	.
4BB-/	.	.	4BB-/	Bóg	me	.	.	.	4d/	Bóg	me	4b-/	Bóg	me	.	4B-/)	.	4d/)	.	4b-/)	.	.	.	.	.	.	.	.	.	.	.	.	.	.	.	.	.	.	.
!!LO:LB:g=original
=12	=12	=12	=12	=12	=12	=12	=12	=12	=12	=12	=12	=12	=12	=12	=12	=12	=12	=12	=12	=12	=12	=12	=12	=12	=12	=12	=12	=12	=12	=12	=12	=12	=12	=12	=12	=12	=12	=12	=12
*	*	*	*	*	*	*	*	*	*	*	*	*	*	*	*	*	*	*	*	*	*	*	*	*	*	*	*	*^	*	*	*	*^	*	*	*	*	*	*	*
2F/	4r	.	4F\	ży-	ser-	.	4r	.	4d/	ser-	.	4b-/	ży-	.	.	2f\	.	(4d/	.	(4b-/	.	4r	.	4r	4r	.	2.r	4r	2ryy	.	4r	.	4r	2ryy	.	4r	.	4r	.	4r	.
.	4r	.	4F\	-wy	-ce	.	4r	.	4c/	-ce	.	4an/	-wy	.	.	.	.	4c/)	.	4an/)	.	4r	.	4r	4r	.	.	4r	.	.	4r	.	4r	.	.	4r	.	4r	.	4r	.
!	!	!	!	!	!	!LO:DY:a	!	!	!	!	!	!	!	!	!	!	!	!	!	!	!LO:DY:a	!	!LO:DY:a	!	!	!	!	!	!	!	!	!	!	!	!	!	!	!	!	!	!
.	.	f	.	.	.	f	.	.	.	.	.	.	.	.	.	.	.	.	.	.	.	.	.	.	.	.	.	.	.	.	.	f	.	.	.	.	f	.	.	.	.
4c/	4F\	.	4F\	by	.	.	4c\ 4An\	przez	4an/ 4f/	by	.	4cc\	przez	.	.	4f\ 4An\	.	4an/	.	4cc\	f	4F\	f	4An\	4c\	f	.	4cc/	4a\	.	4c\ 4An\	.	4f/	4f\	.	4cc\ 4a\	.	4aan\ 4ff\	.	4ccc\	f
*	*	*	*	*	*	*	*	*	*	*	*	*	*	*	*	*	*	*	*	*	*	*	*	*	*	*	*	*v	*v	*	*	*	*v	*v	*	*	*	*	*	*	*
=13	=13	=13	=13	=13	=13	=13	=13	=13	=13	=13	=13	=13	=13	=13	=13	=13	=13	=13	=13	=13	=13	=13	=13	=13	=13	=13	=13	=13	=13	=13	=13	=13	=13	=13	=13	=13	=13	=13	=13
*	*	*	*	*	*	*	*	*	*^	*	*	*	*	*	*	*	*	*	*	*	*	*	*	*	*	*	*	*	*	*^	*	*^	*	*^	*	*	*	*	*
*tremolo	*tremolo	*	*	*	*	*	*	*	*	*	*	*	*	*	*	*	*tremolo	*	*tremolo	*	*tremolo	*	*	*	*	*	*	*	*	*	*	*	*	*	*	*	*	*	*	*	*	*	*
8d/L	8F\L	.	4F\	Twe	.	.	4d\ 4B-\	us-	4b-/ 4f/	2ryy	Twe	.	4dd\	us-	.	.	8f\L 8B-\	.	8b-/L	.	8dd\L	.	4F\	.	4B-\	4d\	.	2.r	4dd\ 4b-\	.	4d\	4B-\	.	4f/	4f\	.	4dd\	4b-\	.	4bb-\ 4ff\	.	4ddd\	.
8d/J	8F\J	.	.	.	.	.	.	.	.	.	.	.	.	.	.	.	8f\J 8B-\	.	8b-/J	.	8dd\J	.	.	.	.	.	.	.	.	.	.	.	.	.	.	.	.	.	.	.	.	.	.
8c/L	8F\L	.	4F\	praw-	.	.	4c\ 4An\	-ta	4an/ 4f/	.	praw-	.	4cc\	-ta	.	.	8f\L 8An\	.	8a/L	.	8cc\L	.	4F\	.	4An\	4c\	.	.	4cc\ 4a\	.	4c\	4An\	.	4f/	4f\	.	4cc\	4a\	.	4aan\ 4ff\	.	4ccc\	.
8c/J	8F\J	.	.	.	.	.	.	.	.	.	.	.	.	.	.	.	8f\J 8A\	.	8a/J	.	8cc\J	.	.	.	.	.	.	.	.	.	.	.	.	.	.	.	.	.	.	.	.	.	.
8B-/L	8F\L	.	4F\	-dy	.	.	4B-\ 4G\	ka-	4g/	4f\	-dy	.	4b-\	ka-	.	.	8f\L 8G\	.	8g/L	.	8b-\L	.	4F\	.	4G\	4B-\	.	.	4b-\ 4g\	.	4B-\	4G\	.	4f/	4f\	.	4b-/	4g\	.	4gg\ 4ff\	.	4bb-\	.
8B-/J	8F\J	.	.	.	.	.	.	.	.	.	.	.	.	.	.	.	8f\J 8G\	.	8g/J	.	8b-\J	.	.	.	.	.	.	.	.	.	.	.	.	.	.	.	.	.	.	.	.	.	.
*Xtremolo	*Xtremolo	*	*	*	*	*	*	*	*	*	*	*	*	*	*	*	*Xtremolo	*	*Xtremolo	*	*Xtremolo	*	*	*	*	*	*	*	*	*	*	*	*	*	*	*	*	*	*	*	*	*	*
=14	=14	=14	=14	=14	=14	=14	=14	=14	=14	=14	=14	=14	=14	=14	=14	=14	=14	=14	=14	=14	=14	=14	=14	=14	=14	=14	=14	=14	=14	=14	=14	=14	=14	=14	=14	=14	=14	=14	=14	=14	=14	=14	=14
*	*	*	*	*	*	*	*^	*	*	*	*	*	*	*	*	*	*	*	*	*	*	*	*	*	*	*	*	*	*	*	*	*	*	*	*	*	*	*	*	*	*	*	*
8c/L	8F\L	.	4F\	 świę-	.	.	4c/	4An\	-pła-	4an/	4f\	świę-	.	4cc\	-pła-	.	.	8f\L 8An\	.	8an/L	.	8cc'\L	.	4.F\	.	4.An\	4.c\	.	2.r	4.cc\ 4.a\	.	4.c\	4.An\	.	4.f/	4.f\	.	4.cc/	4.a\	.	4.aa-\ 4.ff\	.	4ccc\	.
8c/	8F\	.	.	.	.	.	.	.	.	.	.	.	.	.	.	.	.	8f\	.	8a/	.	8cc'\	.	.	.	.	.	.	.	.	.	.	.	.	.	.	.	.	.	.	.	.	.	.
8c/	8F\	.	8F\	-te	.	.	8c/	8A\	-na	8a/	8f\	-te	.	8cc\	-na	.	.	8f\	.	8a/	.	8cc'\J	.	.	.	.	.	.	.	.	.	.	.	.	.	.	.	.	.	.	.	.	4r	.
8F/	8F\	.	8r	.	.	.	8r	4.ryy	.	8r	4.ryy	.	.	8r	.	.	.	8f\J	.	8a/J	.	8ff'\	.	8r	.	8r	8r	.	.	8r	.	8r	8ryy	.	8r	8r	.	8r	8ryy	.	8r	.	.	.
!	!	!	!	!	!	!	!	!	!	!	!	!	!	!	!	!	!	!	!	!	!	!	!	!	!	!	!	!	!	!	!	!	!	!	!	!LO:SIC:v:t=zbędna pauza	!	!	!	!	!	!	!	!
8E-X/	8E-\	.	4E-X\	.	.	.	4A\	.	.	4f/	.	zna-	.	4cc\	Od-	.	.	8f\L	.	8a/L	.	8ff'\L	.	4r	.	4r	4r	.	.	4r	.	4e-X\	4E-X\	.	4f/	4f\	.	4cc/	4a\	.	4r	.	4ccc\	.
8E-/J	8E-\J	.	.	.	.	.	.	.	.	.	.	.	.	.	.	.	.	8f\J	.	8a/J	.	8cc'\J	.	.	.	.	.	.	.	.	.	.	.	.	.	.	.	.	.	.	.	.	.	.
*v	*v	*	*	*	*	*	*v	*v	*	*v	*v	*	*	*	*	*	*	*	*	*	*	*	*	*	*	*	*	*	*	*	*	*v	*v	*	*v	*v	*	*v	*v	*	*	*	*	*
=15	=15	=15	=15	=15	=15	=15	=15	=15	=15	=15	=15	=15	=15	=15	=15	=15	=15	=15	=15	=15	=15	=15	=15	=15	=15	=15	=15	=15	=15	=15	=15	=15	=15	=15	=15	=15	=15	=15
*tremolo	*	*	*	*	*	*	*	*	*	*	*	*	*	*	*tremolo	*	*tremolo	*	*tremolo	*	*	*	*	*	*	*	*	*	*	*	*	*	*	*	*	*	*	*
*	*	*	*	*	*	*	*	*	*	*	*	*	*	*	*	*	*	*	*	*	*	*	*	*	*	*	*	*	*	*	*	*	*^	*	*	*	*	*
8D\L	.	2D\	.	.	.	2B-\	.	2f/	-laz-	.	2ff\	-wiecz-	.	.	8f\L	.	8b-/L	.	8ff'\L	.	2.r	.	2.r	2.r	.	2.ryy	2.r	.	2.d\ 2.D\	.	2.f/ 2.B-/	.	(2ff/	2b-\	.	2.r	.	(2fff\	.
8D\	.	.	.	.	.	.	.	.	.	.	.	.	.	.	8f\	.	8b-/	.	8ff'\	.	.	.	.	.	.	.	.	.	.	.	.	.	.	.	.	.	.	.	.
8D\	.	.	.	.	.	.	.	.	.	.	.	.	.	.	8f\	.	8b-/	.	8ff'\	.	.	.	.	.	.	.	.	.	.	.	.	.	.	.	.	.	.	.	.
8D\	.	.	.	.	.	.	.	.	.	.	.	.	.	.	8f\J	.	8b-/J	.	8ff'\J	.	.	.	.	.	.	.	.	.	.	.	.	.	.	.	.	.	.	.	.
*	*	*	*	*	*	*	*	*	*	*	*	*	*	*	*Xtremolo	*	*Xtremolo	*	*Xtremolo	*	*	*	*	*	*	*	*	*	*	*	*	*	*	*	*	*	*	*	*
8D\	.	4D\	.	.	.	4B-\	.	4f/	-ły	.	4a-X/	-nej	.	.	8B-/L	.	8a-X/L	.	8ff'\L	.	.	.	.	.	.	.	.	.	.	.	.	.	4a-X/)	4f\	.	.	.	4aa-X\)	.
8D\J	.	.	.	.	.	.	.	.	.	.	.	.	.	.	8B-/J	.	8f/J	.	8a-X'\J	.	.	.	.	.	.	.	.	.	.	.	.	.	.	.	.	.	.	.	.
*	*	*	*	*	*	*	*	*	*	*	*	*	*	*	*	*	*	*	*	*	*	*	*	*	*	*	*	*	*	*	*	*	*v	*v	*	*	*	*	*
=16	=16	=16	=16	=16	=16	=16	=16	=16	=16	=16	=16	=16	=16	=16	=16	=16	=16	=16	=16	=16	=16	=16	=16	=16	=16	=16	=16	=16	=16	=16	=16	=16	=16	=16	=16	=16	=16	=16
*	*	*	*	*	*	*	*	*	*	*	*	*	*	*	*	*	*	*	*	*	*	*	*	*	*	*	*	*	*	*	*^	*	*	*	*	*	*	*
*	*	*	*	*	*	*	*	*	*	*	*	*	*	*	*tremolo	*	*	*	*	*	*	*	*	*	*	*	*	*	*	*	*	*	*	*	*	*	*	*	*
8E-\L	.	2E-\	.	.	.	2B-\	.	2e-/	we	.	2g/	praw-	.	.	8B-/L	.	8e-/L	.	8g'\L	.	2.r	.	2.r	2.r	.	2.ryy	2.r	.	2B-\ 2E-\	.	2g/	2e-\	.	(>2g/ 2e-/	.	2.r	.	(2gg\	.
8E-\	.	.	.	.	.	.	.	.	.	.	.	.	.	.	8B-/	.	8g/	.	8b-'\	.	.	.	.	.	.	.	.	.	.	.	.	.	.	.	.	.	.	.	.
8E-\	.	.	.	.	.	.	.	.	.	.	.	.	.	.	8B-/	.	8g/	.	8ee-'\	.	.	.	.	.	.	.	.	.	.	.	.	.	.	.	.	.	.	.	.
8E-\J	.	.	.	.	.	.	.	.	.	.	.	.	.	.	8B-/J	.	8e-/J	.	8g'\J	.	.	.	.	.	.	.	.	.	.	.	.	.	.	.	.	.	.	.	.
*	*	*	*	*	*	*	*	*	*	*	*	*	*	*	*Xtremolo	*	*	*	*	*	*	*	*	*	*	*	*	*	*	*	*	*	*	*	*	*	*	*	*
8AA-X/L	.	4A-X\ 4AA-X\	.	.	.	4c\	.	4e-/	mnie	.	4cc\	-dy	.	.	8c/L	.	8e-/L	.	8a-'/L	.	.	.	.	.	.	.	.	.	4c\ 4A-\	.	4g/	4e-\	.	4cc/ 4e-/)	.	.	.	4ccc\)	.
8AA-/J	.	.	.	.	.	.	.	.	.	.	.	.	.	.	8A-/J	.	8e-/J	.	8cc'/J	.	.	.	.	.	.	.	.	.	.	.	.	.	.	.	.	.	.	.	.
*Xtremolo	*	*	*	*	*	*	*	*	*	*	*	*	*	*	*	*	*	*	*	*	*	*	*	*	*	*	*	*	*	*	*	*	*	*	*	*	*	*	*
*	*	*	*	*	*	*	*	*	*	*	*	*	*	*	*	*	*	*	*	*	*	*	*	*	*	*	*	*	*	*	*v	*v	*	*	*	*	*	*	*
=17	=17	=17	=17	=17	=17	=17	=17	=17	=17	=17	=17	=17	=17	=17	=17	=17	=17	=17	=17	=17	=17	=17	=17	=17	=17	=17	=17	=17	=17	=17	=17	=17	=17	=17	=17	=17	=17	=17
*	*	*	*	*	*	*^	*	*	*	*	*	*	*	*	*	*	*	*	*	*	*	*	*	*	*	*	*	*	*	*	*	*	*	*	*	*	*	*
!	!	!	!	!	!	!	!	!	!	!	!	!	!	!	!	!	!	!LO:TX:b:t=|:problem	!	!LO:TX:b:t=|:problem	!	!	!	!	!	!	!	!LO:TX:b:t=|:problem	!	!	!	!	!	!	!	!LO:TX:a:t=|:problem	!	!	!
8.BB-/L	.	8.B-\ 8.BB-\	.	.	.	8.B-\	2ryy	.	8.g/	god-	.	8.b-/	gło-	.	.	8.B-/L	.	8.g/L	.	8.b-/L	.	2.r	.	2.r	2.r	.	2.ryy	8.b-/L 8.g/	.	8.B-\L	.	2.ryy	.	2.r	.	8.bb-\L 8.gg\	.	2.r	.
!	!	!	!	!	!	!	!	!	!	!	!	!	!	!	!	!	!	!LO:TX:b:t=|:problem	!	!LO:TX:b:t=|:problem	!	!	!	!	!	!	!	!LO:TX:b:t=|:problem	!	!	!	!	!	!	!	!LO:TX:a:t=|:problem	!	!	!
16BB-/Jk	.	16B-\ 16BB-\	.	.	.	16B-\	.	.	16e-/	-ne	.	16g/	-sić	.	.	16B-/Jk	.	16e-/Jk	.	16g/Jk	.	.	.	.	.	.	.	16g/Jk 16e-/	.	16B-\Jk	.	.	.	.	.	16gg\Jk 16ee-\	.	.	.
4BB-/	.	4B-\ 4BB-\	.	.	.	4B-\	.	.	4g/	swe	.	4b-/	bę-	.	.	4B-/	.	4g/	.	(4b-/	.	.	.	.	.	.	.	(>4b-/ 4g/	.	4B-\	.	.	.	.	.	(4bb-\ 4gg\	.	.	.
4BB-/	.	4BB-/	.	.	.	4d/	4B-\	.	4f/	schro-	.	4a-/	-dzie	.	.	4B-/	.	4f/	.	4a-/)	.	.	.	.	.	.	.	4a-X/ 4f/)	.	4d\ 4BB-\	.	.	.	.	.	4aa-\ 4ff\)	.	.	.
!!LO:LB:g=original
=18	=18	=18	=18	=18	=18	=18	=18	=18	=18	=18	=18	=18	=18	=18	=18	=18	=18	=18	=18	=18	=18	=18	=18	=18	=18	=18	=18	=18	=18	=18	=18	=18	=18	=18	=18	=18	=18	=18	=18
*	*	*	*	*	*	*	*	*	*	*	*	*	*	*	*	*	*	*	*	*	*	*	*	*	*	*	*	*^	*	*	*	*^	*	*^	*	*^	*	*	*
4.E-\	.	4E-\	.	.	.	4c/	4An\	.	4e-/	-nie-	.	4f#X/	sło-	.	.	(4An/	>	([4e-/ 4c/	.	(4f#X/	>	4.E-\	>	4An\	(4c\	>	2.r	(4f#X/	4.e-\	.	(>4c\ [>4E-\	>	4.e-/ 4.E-/	2ryy	.	(4cc/	(4a\	>	(>4ff#X/	[>4ee-\	>	4r	.
.	.	8E-\	.	.	.	8B-/	8B-\	.	8e-/	-nie	.	8g/	-wa	.	.	8B-/)	]	8e-/] 8B-/)	.	8g/)	]	.	]	8B-\	8B-\)	]	.	8g/)	.	.	8B-\ 8E-\])	]	.	.	.	8b-/)	8b-\)	]	8gg/)	8ee-\]	]	4r	.
8r	.	8r	.	.	.	8r	4.ryy	.	8r	.	.	8r	.	.	.	8r	.	8r	.	8r	.	8r	.	8r	8r	.	.	8r	4.ryy	.	8r	.	8r	.	.	8r	8ryy	.	8r	8ryy	.	.	.
[4G\	.	4G\	.	.	.	4e-\	.	.	4e-/	Zna-	.	4b-\	od-	.	.	[4g\	.	[4e-/	.	[4b-\	.	4r	.	4r	4r	.	.	4r	.	.	[>4G/ [>4GG/	.	[4e-/	4e-\	.	4b-/	4b-\	.	4r	4ryy	.	[4bb-\	.
*	*	*	*	*	*	*v	*v	*	*	*	*	*	*	*	*	*	*	*	*	*	*	*	*	*	*	*	*	*	*	*	*	*	*	*	*	*	*	*	*v	*v	*	*	*
=19	=19	=19	=19	=19	=19	=19	=19	=19	=19	=19	=19	=19	=19	=19	=19	=19	=19	=19	=19	=19	=19	=19	=19	=19	=19	=19	=19	=19	=19	=19	=19	=19	=19	=19	=19	=19	=19	=19	=19	=19	=19
!LO:TX:t=P:problem:mixed beam	!	!	!	!	!	!	!	!	!	!	!	!	!	!	!	!	!	!	!	!	!	!	!	!	!	!	!	!	!	!	!	!	!	!	!	!	!	!	!	!	!
8G\L]	.	2G\	.	.	.	2e-\	.	2e-/	-laz-	.	2b-\	-wiecz-	.	.	8g\L]	.	8e-\L]	.	8b-\L]	.	2.r	.	2.r	2.r	.	2.r	2.r	2.r	.	2G/] 2GG/]	.	2e-/]	2e-\	.	2b-/	2b-\	.	2.r	.	2bb-\]	<
8GG/	.	.	.	.	.	.	.	.	.	.	.	.	.	.	(8b-\	.	(8ee-\	.	(8gg\	.	.	.	.	.	.	.	.	.	.	.	.	.	.	.	.	.	.	.	.	.	.
8G\	<	.	.	.	.	.	.	.	.	.	.	.	.	.	8g\)	.	8b-\)	.	8ee-\)	.	.	.	.	.	.	.	.	.	.	.	.	.	.	.	.	.	.	.	.	.	.
!	!	!	!	!	!	!	!	!	!	!	!	!	!	!	!	!	!	!	!	!	!	!	!	!	!	!	!	!	!	!	!LO:HP:a	!	!	!	!	!	!	!	!	!	!
8G\	.	.	.	.	.	.	.	.	.	.	.	.	.	.	8e-'\	.	8g'\	.	8b-'\	.	.	.	.	.	.	.	.	.	.	.	<	.	.	.	.	.	.	.	.	.	.
8G\	.	4G\	.	.	.	4B-\	.	4e-/	-ły	.	4ee-\	-nej	.	.	8B-'\	.	8e-'\	.	8g'\	.	.	.	.	.	.	.	.	.	.	4G/ 4GG/	.	[4e-/	4e-\	<	4ee-/	4b-\	<	.	.	(4ddd\	[[
8G\J	.	.	.	.	.	.	.	.	.	.	.	.	.	.	8g'\J	.	8b-'\J	.	8ee-'\J	.	.	.	.	.	.	.	.	.	.	.	.	.	.	.	.	.	.	.	.	.	.
*	*	*	*	*	*	*	*	*	*	*	*	*	*	*	*	*	*	*	*	*	*	*	*	*	*	*	*v	*v	*	*	*	*	*	*	*	*	*	*	*	*	*
=20	=20	=20	=20	=20	=20	=20	=20	=20	=20	=20	=20	=20	=20	=20	=20	=20	=20	=20	=20	=20	=20	=20	=20	=20	=20	=20	=20	=20	=20	=20	=20	=20	=20	=20	=20	=20	=20	=20	=20	=20
!LO:TX:t=P:problem:mixed beam	!	!	!	!	!	!	!	!	!	!	!	!	!	!	!	!	!LO:TX:a:t=|:problem	!	!	!	!	!	!	!	!	!	!	!	!	!	!	!	!	!	!	!	!	!	!	!
8A-\L	.	2A-\	.	.	.	2c\	.	2e-/	we	.	2ee-\	praw-	.	.	8a-'\L	<	8a-\L	<	8cc'\L	<	4r	.	4r	4r	.	2.r	4r	.	2A-/ 2AA-/	.	2e-/]	2e-\	.	2ee-/	2cc\	.	4r	.	(2eee-\)	<
8AA-/	.	.	.	.	.	.	.	.	.	.	.	.	.	.	(8ee-\	.	(8bb-\	.	(8ccc\	.	.	.	.	.	.	.	.	.	.	.	.	.	.	.	.	.	.	.	.	.
8A-\	.	.	.	.	.	.	.	.	.	.	.	.	.	.	8cc\)	.	8ee-\)	.	8aa-\)	.	4r	.	4r	4r	.	.	4r	.	.	.	.	.	.	.	.	.	4r	.	.	.
8A-\	.	.	.	.	.	.	.	.	.	.	.	.	.	.	8a-'\	.	8cc'\	.	8ee-'\	.	.	.	.	.	.	.	.	.	.	.	.	.	.	.	.	.	.	.	.	.
8An\	[ sf	4An\	.	.	.	4e-\	.	4g-X/	mnie	.	4cc\	-dy	.	.	8e-'\	[ sf	8an'\	[	8cc'\	[ sf	(4AAn/	.	(4F#X/	(4c/	sf	.	4cc/ 4f#X^/	sf	4An/ 4AAn/	[ sf	4e-^</	4e-\	[ sf	4ee-^</	4cc\	[sf	(>(>4ccc\ 4ff#X^<\	sf	[4bb-\)	[[
8A^\J	.	.	.	.	.	.	.	.	.	.	.	.	.	.	8f#X'^<\J	.	8cc'^<\J	.	8ee-'^<\J	.	.	.	.	.	.	.	.	.	.	.	.	.	.	.	.	.	.	.	.	.
*	*	*	*	*	*	*	*	*	*	*	*	*	*	*	*	*	*	*	*	*	*	*	*	*	*	*	*	*	*	*	*v	*v	*	*	*	*	*	*	*	*
=21||	=21||	=21||	=21||	=21||	=21||	=21||	=21||	=21||	=21||	=21||	=21||	=21||	=21||	=21||	=21||	=21||	=21||	=21||	=21||	=21||	=21||	=21||	=21||	=21||	=21||	=21||	=21||	=21||	=21||	=21||	=21||	=21||	=21||	=21||	=21||	=21||	=21||	=21||	=21||
*	*	*	*	*	*	*	*	*	*	*	*	*	*	*	*tremolo	*	*tremolo	*	*tremolo	*	*	*	*	*	*	*	*	*	*	*	*	*	*	*	*	*	*	*	*
*	*	*	*	*	*	*	*	*^	*	*	*	*	*	*	*	*	*	*	*	*	*	*	*	*	*	*	*	*	*	*	*	*	*	*	*	*	*	*	*
!LO:TX:t=P:problem:mixed beam	!	!	!	!	!	!	!	!	!	!	!	!	!	!	!	!	!	!	!	!	!	!	!	!	!	!	!	!	!	!	!	!	!	!	!	!	!	!	!	!
*	*	*	*	*	*	*	*	*	*	*	*	*	*	*	*	*	*	*	*	*	*	*	*	*	*	*	*	*	*	*^	*	*	*	*	*	*	*	*	*	*
!	!	!	!	!	!	!	!	!	!	!	!	!	!	!	!	!	!	!	!	!	!	!	!	!	!	!	!	!	!	!	!	!	!	!	!	!	!	!	!	!LO:TX:a:B:t=Adagio.	!
8.B-\L	<	8.B-\	.	.	.	8.e-\	.	8.gn/	4ryy	god-	.	8.b-\	gło-	.	.	16e-\LL	.	16g/LL	<	16b-\LL	<	8.BB-/L)	.	8.G/L)	8.B-/L)	.	2.r	8.b-/L 8.g/	<	8.B-\L 8.BB-\	4ryy	.	8.B-/L 8.BB-/	<	8.ee-\L	8.b-\L	[ <	8.bb-\L 8.gg\))	.	8.bb-\L]	<
.	.	.	.	.	.	.	.	.	.	.	.	.	.	.	.	16e-\	.	16g/	.	16b-\	.	.	.	.	.	.	.	.	.	.	.	.	.	.	.	.	.	.	.	.	.
.	.	.	.	.	.	.	.	.	.	.	.	.	.	.	.	16e-\	.	16g/	.	16b-\	.	.	.	.	.	.	.	.	.	.	.	.	.	.	.	.	.	.	.	.	.
!	!	!	!	!	!	!	!	!	!	!	!	!	!	!	!	!	!	!	!	!	!	!	!	!LO:TX:b:t=|:problem	!LO:TX:a:t=|:problem	!	!	!	!	!	!	!	!	!	!	!	!	!LO:TX:a:t=|:problem	!	!LO:TX:a:t=|:problem	!
16BB-/Jk	.	16BB-/	.	.	.	16e-\	.	16g/	.	-ne	.	16b-\	-sić	.	.	16e-\JJ	.	16g/JJ	.	16b-\JJ	.	16BB-/Jk	.	16G/Jk	16B-/Jk	<	.	16b-/Jk 16g/	.	16BB-\J	.	<	16B-/Jk 16BB-/	.	16b-\Jk	16g\Jk	.	16bb-\Jk 16gg\	.	16bb-\Jk	.
!	!	!	!	!	!	!	!	!	!	!	!	!	!	!	!	!	!	!	!	!	!	!	!	!LO:TX:b:t=|:problem	!LO:TX:a:t=|:problem	!	!	!	!	!	!	!	!	!	!	!	!	!LO:TX:a:t=|:problem	!	!LO:TX:a:t=|:problem	!
*tremolo	*	*	*	*	*	*	*	*	*	*	*	*	*	*	*	*	*	*	*	*	*	*	*	*	*	*	*	*	*	*	*	*	*	*	*	*	*	*	*	*	*
8BB-/L	.	4BB-/	.	.	.	4e-\	.	4an/	4f#X\	swe	.	4cc\	bę-	.	.	16e-\LL	.	16an/LL 16f#X/	.	16cc\LL	.	4BB-/	.	4An/	4c/	.	.	4a/ 4f#X/	.	4BB-/	4BB-\	.	4B-/ 4BB-/	.	4cc/	4a\	.	4aan\ 4ff#X\	.	4ccc\	.
.	.	.	.	.	.	.	.	.	.	.	.	.	.	.	.	16e-\	.	16a/ 16f#/	.	16cc\	.	.	.	.	.	.	.	.	.	.	.	.	.	.	.	.	.	.	.	.	.
8BB-/J	.	.	.	.	.	.	.	.	.	.	.	.	.	.	.	16e-\	.	16a/ 16f#/	.	16cc\	.	.	.	.	.	.	.	.	.	.	.	.	.	.	.	.	.	.	.	.	.
.	.	.	.	.	.	.	.	.	.	.	.	.	.	.	.	16e-\JJ	.	16a/JJ 16f#/	.	16cc\JJ	.	.	.	.	.	.	.	.	.	.	.	.	.	.	.	.	.	.	.	.	.
!	!	!	!	!	!	!	!	!	!	!	!	!	!	!	!	!	!	!	!	!	!	!	!	!LO:TX:b:t=|:problem	!LO:TX:a:t=|:problem	!	!	!	!	!	!	!	!	!	!	!	!	!LO:TX:a:t=|:problem	!	!LO:TX:a:t=|:problem	!
8BB-/L	.	4BB-/	.	.	.	4f\	.	4a-X/	4fn\	schro-	.	4dd\	-dzie	.	.	16fn\LL 16B-\	.	16a-X/LL	.	16dd\LL	.	4BB-/	.	4A-X/	4d/	[[	.	4a/ 4f/	[[	4BB-/	4BB-\	.	4B-/ 4BB-/	[	4dd/	4a-X\	.	4aa-X\ 4ffn\	.	4ddd\	[[
.	.	.	.	.	.	.	.	.	.	.	.	.	.	.	.	16f\ 16B-\	.	16a-/	.	16dd\	.	.	.	.	.	.	.	.	.	.	.	[	.	.	.	.	.	.	.	.	.
8BB-/J	[[	.	.	.	.	.	.	.	.	.	.	.	.	.	.	16f\ 16B-\	.	16a-/	.	16dd\	.	.	.	.	.	.	.	.	.	.	.	.	.	.	.	.	.	.	.	.	.
.	.	.	.	.	.	.	.	.	.	.	.	.	.	.	.	16f\JJ 16B-\	.	16a-/JJ	[[	16dd\JJ	[[	.	.	.	.	.	.	.	.	.	.	.	.	.	.	.	.	.	.	.	.
*Xtremolo	*	*	*	*	*	*	*	*	*	*	*	*	*	*	*	*	*	*	*	*	*	*	*	*	*	*	*	*	*	*	*	*	*	*	*	*	*	*	*	*	*
*	*	*	*	*	*	*	*	*v	*v	*	*	*	*	*	*	*	*	*	*	*	*	*	*	*	*	*	*	*	*	*v	*v	*	*	*	*v	*v	*	*	*	*	*
=22	=22	=22	=22	=22	=22	=22	=22	=22	=22	=22	=22	=22	=22	=22	=22	=22	=22	=22	=22	=22	=22	=22	=22	=22	=22	=22	=22	=22	=22	=22	=22	=22	=22	=22	=22	=22	=22	=22
*	*	*	*	*	*	*	*	*	*	*	*	*	*	*	*^	*	*	*	*	*	*	*	*	*	*	*	*	*	*	*	*	*	*^	*	*	*	*	*
4.E-\	>	4E-\	.	.	.	4d\	.	4a-X/	-nie-	.	(4ff\	sło-	.	.	(4d/	4.B-\	.	4a-/	>	(4ff\	>	4.E-\	.	(4A-/	(4d\	>	2.r	(4a/ 4f/	>	4.E-/ 4.EE-/	.	4.B-/ 4.E-/	>	(4dd/	4a-X\	[ >	(4aa-\ 4ff\	>	(4fff\	>
.	.	8E-\	.	.	.	8e-\	.	8g/	-nie.	.	8ee-\)	-wa.	.	.	8e-/)	.	.	8g/	]	8ee-\)	]	.	.	8G/)	8e-\)	]	.	8g/ 8e-/)	]	.	.	.	]	16ee-/)	16g\	]	8gg\ 8ee-\)	]	8eee-\)	.
.	]	.	.	.	.	.	.	.	.	.	.	.	.	.	.	.	.	.	.	.	.	.	.	.	.	.	.	.	.	.	.	.	.	(>16b-/LL	16ryy	.	.	.	.	.
8r	.	8r	.	.	.	8r	.	8r	.	.	8r	.	.	.	8r	4.ryy	.	8r	.	8r	.	8r	.	8r	8r	.	.	8r	.	8r	.	8r	.	16a/	8r	.	8r	.	4.ryy	]]
.	.	.	.	.	.	.	.	.	.	.	.	.	.	.	.	.	.	.	.	.	.	.	.	.	.	.	.	.	.	.	.	.	.	16b-/JJ	.	.	.	.	.	.
4r	.	4r	.	.	.	4r	.	4r	.	.	4r	.	.	.	4r	.	.	4r	.	4r	.	4r	.	4r	4r	.	.	4r	.	4r	.	4r	.	16cc/LL	4r	.	4r	.	.	.
.	.	.	.	.	.	.	.	.	.	.	.	.	.	.	.	.	.	.	.	.	.	.	.	.	.	.	.	.	.	.	.	.	.	16dd/	.	.	.	.	.	.
.	.	.	.	.	.	.	.	.	.	.	.	.	.	.	.	.	.	.	.	.	.	.	.	.	.	.	.	.	.	.	.	.	.	16ee-/	.	.	.	.	.	.
.	.	.	.	.	.	.	.	.	.	.	.	.	.	.	.	.	.	.	.	.	.	.	.	.	.	.	.	.	.	.	.	.	.	16ff/JJ	.	.	.	.	.	.
*	*	*	*	*	*	*	*	*	*	*	*	*	*	*	*v	*v	*	*	*	*	*	*	*	*	*	*	*	*	*	*	*	*	*	*	*	*	*	*	*	*
=23	=23	=23	=23	=23	=23	=23	=23	=23	=23	=23	=23	=23	=23	=23	=23	=23	=23	=23	=23	=23	=23	=23	=23	=23	=23	=23	=23	=23	=23	=23	=23	=23	=23	=23	=23	=23	=23	=23	=23
2.r	.	2.ryy	.	.	.	2.ryy	.	2.ryy	.	.	2.ryy	.	.	.	2.r	.	2.r	.	2.r	.	2.r	.	2.r	2.r	.	2.r	2.r	.	8e-'\L	.	2.r	.	8gg'/L)	8ee-\L	.	2.ryy	.	2.ryy	.
.	.	.	.	.	.	.	.	.	.	.	.	.	.	.	.	.	.	.	.	.	.	.	.	.	.	.	.	.	(8d\	.	.	.	(8bb-'/	8ff\J	.	.	.	.	.
.	.	.	.	.	.	.	.	.	.	.	.	.	.	.	.	.	.	.	.	.	.	.	.	.	.	.	.	.	8c\)	.	.	.	8aa-/)	4ee-\	.	.	.	.	.
.	.	.	.	.	.	.	.	.	.	.	.	.	.	.	.	.	.	.	.	.	.	.	.	.	.	.	.	.	8B-'\	.	.	.	8gg'/	.	.	.	.	.	.
.	.	.	.	.	.	.	.	.	.	.	.	.	.	.	.	.	.	.	.	.	.	.	.	.	.	.	.	.	8A-'\	.	.	.	8ff'/	4cc\	.	.	.	.	.
.	.	.	.	.	.	.	.	.	.	.	.	.	.	.	.	.	.	.	.	.	.	.	.	.	.	.	.	.	8An'\J	.	.	.	8ee-'/J	.	.	.	.	.	.
=24	=24	=24	=24	=24	=24	=24	=24	=24	=24	=24	=24	=24	=24	=24	=24	=24	=24	=24	=24	=24	=24	=24	=24	=24	=24	=24	=24	=24	=24	=24	=24	=24	=24	=24	=24	=24	=24	=24	=24
2.r	.	2.ryy	.	.	.	2.ryy	.	2.ryy	.	.	2.ryy	.	.	.	2.r	.	2.r	.	2.r	.	2.r	.	2.r	2.r	.	2.r	4r	.	(4B-\	.	2.r	.	(8dd/L	8b-\L	.	2.ryy	.	2.ryy	.
.	.	.	.	.	.	.	.	.	.	.	.	.	.	.	.	.	.	.	.	.	.	.	.	.	.	.	.	.	.	.	.	.	8ee-/	8cc\	.	.	.	.	.
.	.	.	.	.	.	.	.	.	.	.	.	.	.	.	.	.	.	.	.	.	.	.	.	.	.	.	8r	.	8BB-/)	.	.	.	8ff'/)	8dd\	.	.	.	.	.
.	.	.	.	.	.	.	.	.	.	.	.	.	.	.	.	.	.	.	.	.	.	.	.	.	.	.	(8f/L 8d/	.	((8B-L\	.	.	.	((8ff/	8dd\	.	.	.	.	.
.	.	.	.	.	.	.	.	.	.	.	.	.	.	.	.	.	.	.	.	.	.	.	.	.	.	.	8g/ 8e-/)	.	8An\)	.	.	.	8gg/)	8ee-\	.	.	.	.	.
.	.	.	.	.	.	.	.	.	.	.	.	.	.	.	.	.	.	.	.	.	.	.	.	.	.	.	8a-X/J 8f'/	.	8A-X'\J	.	.	.	8aa-'/J)	8ff\J	.	.	.	.	.
=25	=25	=25	=25	=25	=25	=25	=25	=25	=25	=25	=25	=25	=25	=25	=25	=25	=25	=25	=25	=25	=25	=25	=25	=25	=25	=25	=25	=25	=25	=25	=25	=25	=25	=25	=25	=25	=25	=25	=25
*	*	*	*	*	*	*	*	*	*	*	*	*	*	*	*^	*	*	*	*	*	*	*	*	*	*	*	*^	*	*	*	*	*	*	*	*	*^	*	*	*
!LO:TX:a:t=|:problem	!	!	!	!	!	!	!	!	!	!	!	!	!	!	!	!	!	!	!	!LO:TX:a:t=|:problem	!	!	!	!	!	!	!	!LO:TX:b:t=|:problem	!	!	!	!	!	!	!	!	!	!	!	!	!	!
8.G\L	.	2.ryy	.	.	.	2.ryy	.	2.ryy	.	.	2.ryy	.	.	.	8.b-\L 8.e-\	2ryy	.	8.ee-\L	.	8.bb-\L	.	4r	.	4r	4r	.	2.r	8.b-/L 8.e-/	4ryy	.	8.G'\L)	.	4r	.	8.bb-/L	8.ee-\L	.	8.bb-/L	8.ee-\L	.	2.ryy	.
!LO:TX:a:t=|:problem	!	!	!	!	!	!	!	!	!	!	!	!	!	!	!	!	!	!	!	!LO:TX:a:t=|:problem	!	!	!	!	!	!	!	!LO:TX:b:t=|:problem	!	!	!	!	!	!	!	!	!	!	!	!	!	!
16A-\Jk	.	.	.	.	.	.	.	.	.	.	.	.	.	.	16a-\Jk 16f\	.	.	16cc\Jk	.	16aa-\Jk	.	.	.	.	.	.	.	16a-X/Jk 16f/	.	.	16A-'\Jk	.	.	.	16aa-/Jk	16ff\Jk	.	16aa-/Jk	16cc\Jk	.	.	.
!	!	!	!	!	!	!	!	!	!	!	!	!	!	!	!	!	!	!	!	!	!	!	!	!	!	!	!	!	!	!	!LO:TX:a:t=|:problem	!	!	!	!	!	!	!	!	!	!	!
4B-\	.	.	.	.	.	.	.	.	.	.	.	.	.	.	4g\ 4e-\	.	.	([4b-/	.	([4gg\	.	4r	.	4r	4r	.	.	[4g/	4e-\	.	4B-\	.	4r	.	[4gg/	4ee-\	.	[4gg/	4b-\	.	.	.
!	!	!	!	!	!	!	!	!	!	!	!	!	!	!	!	!	!	!	!	!	!	!	!	!	!	!	!	!	!	!	!LO:TX:b:t=|:problem	!	!	!	!	!	!	!	!	!	!	!
4BB-/	.	.	.	.	.	.	.	.	.	.	.	.	.	.	8.g/L	4d\	.	8.b-/L]	.	8.gg\L]	.	4BB-/	.	4A-\	4d\	.	.	8.g/L]	4d\	.	4BB-/	.	4B-/ 4BB-/	.	8.gg/L]	4dd\	.	8.gg]/L	8.b-\L	.	.	.
.	.	.	.	.	.	.	.	.	.	.	.	.	.	.	16f/Jk	.	.	16a-/Jk)	.	16ff\Jk	.	.	.	.	.	.	.	16f/Jk	.	.	.	.	.	.	16ff/Jk	.	.	16ff/Jk	16a-\Jk	.	.	.
*	*	*	*	*	*	*	*	*	*	*	*	*	*	*	*	*	*	*	*	*	*	*	*	*	*	*	*	*	*	*	*	*	*	*	*	*	*	*v	*v	*	*	*
=26	=26	=26	=26	=26	=26	=26	=26	=26	=26	=26	=26	=26	=26	=26	=26	=26	=26	=26	=26	=26	=26	=26	=26	=26	=26	=26	=26	=26	=26	=26	=26	=26	=26	=26	=26	=26	=26	=26	=26	=26	=26
*	*	*	*	*	*	*	*	*	*	*	*	*	*	*	*	*	*	*	*	*	*	*	*	*	*	*	*	*	*	*	*^	*	*	*	*	*	*	*	*	*	*
4.E-\	>	2ryy	.	.	.	2ryy	.	2ryy	.	.	2ryy	.	.	.	(4f/	(4d\	>	4a-/ [4B-/	.	(4ff\)	.	4.E-\	.	(4A-\	(4f\	.	4r	4f/	4d\	.	4.E-/	4.E-\	.	4.B-/ 4.E-/	.	4ff/	4dd\	.	(4ff\ 4a-\	>	2ryy	.
.	]	.	.	.	.	.	.	.	.	.	.	.	.	.	8e-/)	8e-\)	]	8g/ 8B-/]	.	8ee-\)	.	.	.	8G\)	8e-\)	.	4r	8e-/	8e-\	.	.	.	.	.	.	8ee-/	8ee-\	.	8ee-\) 8g\	]	.	.
8r	.	.	.	.	.	.	.	.	.	.	.	.	.	.	8r	8r	.	8r	.	8r	.	8r	.	8r	8r	.	.	8r	8r	.	8r	8r	.	8r	.	8r	8ryy	.	8r	.	.	.
*	*	*	*	*	*	*	*	*	*	*	*	*	*	*	*	*	*	*	*	*	*	*	*	*	*	*	*	*v	*v	*	*	*	*	*	*	*v	*v	*	*	*	*	*
*	*	*	*	*	*	*	*	*	*	*	*	*	*	*	*v	*v	*	*	*	*	*	*	*	*	*	*	*	*	*	*v	*v	*	*	*	*	*	*	*	*	*
=:|!	=:|!	=:|!	=:|!	=:|!	=:|!	=:|!	=:|!	=:|!	=:|!	=:|!	=:|!	=:|!	=:|!	=:|!	=:|!	=:|!	=:|!	=:|!	=:|!	=:|!	=:|!	=:|!	=:|!	=:|!	=:|!	=:|!	=:|!	=:|!	=:|!	=:|!	=:|!	=:|!	=:|!	=:|!	=:|!	=:|!	=:|!	=:|!
*-	*-	*-	*-	*-	*-	*-	*-	*-	*-	*-	*-	*-	*-	*-	*-	*-	*-	*-	*-	*-	*-	*-	*-	*-	*-	*-	*-	*-	*-	*-	*-	*-	*-	*-	*-	*-	*-	*-
!!!system-decoration: (s1,s2,s3,s4,s5,s6,s7,{s8,s9,s10}),{(s11,s12,s13)},{s14,s15,s16,s17},s18
!!!RDF**kern: > = above
!!!RDF**kern: < = below
!!!ENC: Tomasz Grochalski
!!!END: 2021-04-09
!!!EED: Leszek Kubiak
!!!EST: 2021-04-24
